!! 00006] TT[TB
!! Eigene Aufnahme
!!!OTL: Yitang qingshui yitang lian
!!!ARE: Asia, China,Hunan, Hengshan
!! Ethnic Group: Han
!! I, 556
!!!SCT: C0134
!!!YEM: Copyright 1995, estate of Helmut Schaffrath.
**kern
*ICvox
*Ivox
*M2/2
*k[f#c#g#]
*A:
{8ff#
8aa
2.ff#
=1
8.fff#
16aaa
[2eee
8eee]
8ccc#}
=2
{1fff#
=3
2.eee
4ccc#
=4
1bb}
=5
{8aa
8ccc#
8ff#
8aa
[2ccc#
=6
4.ccc#]
16aa
16ff#
4ee
4cc#
=7
8cc#
8ee
2.ff#}
=8
{8ff#
8aa
2.ff#
=9
8.fff#
16aaa
2eee
8eee
8ccc#}
=10
{8ccc#
8eee
2.fff#
=11
2.eee
4ccc#}
=12
{4ccc#
4ccc#
16aa
16ff#
8ee
8ee
8cc#
=13
8cc#
8ee
2.ff#}
=14
{4aa
4aa
4eee
4ccc#
=15
8ff#
8aa
2.ccc#
=16
1bb}
=17
{4ccc#
4ccc#
16aa
16ff#
16ee
16ff#
4aa
=18
4ccc#
16aa
16bb
16aa
16bb
16aa
16bb
16aa
16bb
4aa}
=19
{4aa
4aa
4ccc#
8ff#
8aa
=20
1ccc#
=21
1bb}
=22
{4ccc#
4ccc#
12aa
12ff#
12ee
12ff#
12ee
12cc#
=23
4ee
2.ff#}
==
!!!AGN: Shange
!! Ist eine Variante. Die 5 hat bisweilen ein #, manchmal wird sie
!!    aber auch weniger erhoeht. Dasselbe gilt auch fuer die 2. - Sollte
!!    mit Maennerstimme gesungen werden: viel Falsett. - Inhalt: aus
!!    der Lokaloper entnommen; beschreibt die laendliche Gegend und
!!    Lotosblumen, die von Mann und Frau gepflueckt werden.
!!    Saengerin: Huang Bai
!!    Die beiden Triolen in der letzten Phrase sind in der Vorlage als
!!    Sechstole notiert. Wenig Verzierungen.
!!    +++ NACH ABHOEREN SAEMTLICHE (#-) VORZEICHEN ENTFERNT, DA SIE DEM
!!    (temperierten) HOEREINDRUCK NICHT ENTSPRECHEN. Vgl. Transkription!
!!    Gesungen: VARIANTE. Viele Verzierungen?
!!    +++ (Die originalen Noten in den letzten 2 Takten sind falsch, Sie wurden
!!    korregiert.)
!!!ONB: ESAC (Essen Associative Code) Database: CHINA_072
!!!AMT: simple duple
!!!AIN: vox
!!!EED: Helmut Schaffrath
!!!EEV: 1.0
*-
!!!ONB: Tied note syntax fixed by Craig Sapp, 2004/05/03/
